icons/passport.svg

<svg width="24" height="24" viewBox="0 0 24 24" fill="none" xmlns="http://www.w3.org/2000/svg">
<path fill-rule="evenodd" clip-rule="evenodd" d="M3 3C3 2.44772 3.44772 2 4 2H20C20.5523 2 21 2.44772 21 3V21C21 21.5523 20.5523 22 20 22H4C3.44772 22 3 21.5523 3 21V3ZM5 4V20H19V4H5ZM12 8C10.8954 8 10 8.89543 10 10C10 11.1046 10.8954 12 12 12C13.1046 12 14 11.1046 14 10C14 8.89543 13.1046 8 12 8ZM8 10C8 7.79086 9.79086 6 12 6C14.2091 6 16 7.79086 16 10C16 12.2091 14.2091 14 12 14C9.79086 14 8 12.2091 8 10ZM8 17C8 16.4477 8.44772 16 9 16H15C15.5523 16 16 16.4477 16 17C16 17.5523 15.5523 18 15 18H9C8.44772 18 8 17.5523 8 17Z" fill="black"/>
</svg>

<svg
  width="24"
  height="24"
  viewBox="0 0 24 24"
  xmlns="http://www.w3.org/2000/svg"
>
  <path
    fill-rule="evenodd"
    clip-rule="evenodd"
    d="M3 3a1 1 0 0 1 1-1h16a1 1 0 0 1 1 1v18a1 1 0 0 1-1 1H4a1 1 0 0 1-1-1V3zm2 1v16h14V4H5zm7 4a2 2 0 1 0 0 4 2 2 0 0 0 0-4zm-4 2a4 4 0 1 1 8 0 4 4 0 0 1-8 0zm0 7a1 1 0 0 1 1-1h6a1 1 0 1 1 0 2H9a1 1 0 0 1-1-1z"
  />
</svg>
